SVG_Azure_Grouped/Networking/Private Link.svg

<?xml version="1.0" encoding="UTF-8" standalone="no"?>
<!-- Generated by Microsoft Visio, SVG Export Private Link.svg Page-1 -->

<svg
   xmlns:dc="http://purl.org/dc/elements/1.1/"
   xmlns:cc="http://creativecommons.org/ns#"
   xmlns:rdf="http://www.w3.org/1999/02/22-rdf-syntax-ns#"
   xmlns:svg="http://www.w3.org/2000/svg"
   xmlns="http://www.w3.org/2000/svg"
   xmlns:sodipodi="http://sodipodi.sourceforge.net/DTD/sodipodi-0.dtd"
   xmlns:inkscape="http://www.inkscape.org/namespaces/inkscape"
   width="0.78735423in"
   height="0.74647349in"
   viewBox="0 0 56.689572 53.746176"
   xml:space="preserve"
   class="st6"
   version="1.1"
   id="svg83"
   sodipodi:docname="Private Link.svg"
   style="font-size:12px;overflow:visible;color-interpolation-filters:sRGB;fill:none;fill-rule:evenodd;stroke-linecap:square;stroke-miterlimit:3"
   inkscape:version="0.92.5 (2060ec1f9f, 2020-04-08)"><metadata
   id="metadata87"><rdf:RDF><cc:Work
       rdf:about=""><dc:format>image/svg+xml</dc:format><dc:type
         rdf:resource="http://purl.org/dc/dcmitype/StillImage" /></cc:Work></rdf:RDF></metadata><sodipodi:namedview
   pagecolor="#ffffff"
   bordercolor="#666666"
   borderopacity="1"
   objecttolerance="10"
   gridtolerance="10"
   guidetolerance="10"
   inkscape:pageopacity="0"
   inkscape:pageshadow="2"
   inkscape:window-width="640"
   inkscape:window-height="480"
   id="namedview85"
   showgrid="false"
   inkscape:zoom="1.7679873"
   inkscape:cx="37.792145"
   inkscape:cy="21.382835"
   inkscape:window-x="0"
   inkscape:window-y="0"
   inkscape:window-maximized="0"
   inkscape:current-layer="svg83" />
	<style
   type="text/css"
   id="style2">
	<![CDATA[
		.st1 {fill:#7a7a7a;stroke:none;stroke-linecap:butt;stroke-width:12.24}
		.st2 {fill:#1490df;stroke:none;stroke-linecap:butt;stroke-width:12.24}
		.st3 {fill:url(#grad0-10);stroke:none;stroke-linecap:butt;stroke-width:12.24}
		.st4 {fill:url(#grad0-14);stroke:none;stroke-linecap:butt;stroke-width:12.24}
		.st5 {fill:#50e6ff;stroke:none;stroke-linecap:butt;stroke-width:12.24}
		.st6 {fill:none;fill-rule:evenodd;font-size:12px;overflow:visible;stroke-linecap:square;stroke-miterlimit:3}
	]]>
	</style>

	<defs
   id="Patterns_And_Gradients">
		<linearGradient
   id="grad0-10"
   x1="-0.034831008"
   y1="99.65131"
   x2="16.816167"
   y2="99.65131"
   gradientTransform="scale(1.163743,0.85929628)"
   gradientUnits="userSpaceOnUse">
			<stop
   offset="0.23"
   stop-color="#5ea0ef"
   stop-opacity="1"
   id="stop4" />
			<stop
   offset="0.32"
   stop-color="#5b9fee"
   stop-opacity="1"
   id="stop6" />
			<stop
   offset="0.48"
   stop-color="#509aeb"
   stop-opacity="1"
   id="stop8" />
			<stop
   offset="0.57"
   stop-color="#3f92e6"
   stop-opacity="1"
   id="stop10" />
			<stop
   offset="0.75"
   stop-color="#2688df"
   stop-opacity="1"
   id="stop12" />
			<stop
   offset="0.93"
   stop-color="#127fd9"
   stop-opacity="1"
   id="stop14" />
		</linearGradient>
		<linearGradient
   id="grad0-14"
   x1="0.12930716"
   y1="99.534542"
   x2="16.96056"
   y2="99.534542"
   gradientTransform="scale(1.1623793,0.86030435)"
   gradientUnits="userSpaceOnUse">
			<stop
   offset="0.02"
   stop-color="#5ea0ef"
   stop-opacity="1"
   id="stop17" />
			<stop
   offset="0.14"
   stop-color="#5b9fee"
   stop-opacity="1"
   id="stop19" />
			<stop
   offset="0.23"
   stop-color="#5b9fee"
   stop-opacity="1"
   id="stop21" />
			<stop
   offset="0.34"
   stop-color="#509aeb"
   stop-opacity="1"
   id="stop23" />
			<stop
   offset="0.44"
   stop-color="#3f92e6"
   stop-opacity="1"
   id="stop25" />
			<stop
   offset="0.63"
   stop-color="#2688df"
   stop-opacity="1"
   id="stop27" />
			<stop
   offset="0.93"
   stop-color="#127fd9"
   stop-opacity="1"
   id="stop29" />
		</linearGradient>
	</defs>
	<g
   id="g81"
   transform="translate(-12.24231,-12.347973)">
		<title
   id="title33">Page-1</title>
		<g
   id="group17680-1"
   transform="translate(12.24,-34.0157)">
			<title
   id="title35">Private Link.17680</title>
			<g
   id="group17681-2">
				<title
   id="title37">Artboard 1</title>
				<g
   id="shape17682-3"
   transform="translate(25.9891,-25.0122)">
					<title
   id="title39">Sheet.17682</title>
					<rect
   x="0"
   y="77.302696"
   width="3.53601"
   height="22.8113"
   class="st1"
   id="rect41"
   style="fill:#7a7a7a;stroke:none;stroke-width:12.23999977;stroke-linecap:butt" />
				</g>
				<g
   id="shape17683-5"
   transform="translate(22.571,-43.2371)">
					<title
   id="title44">Sheet.17683</title>
					<path
   d="m 10.37,94.8 a 5.18614,5.31057 0 1 1 -10.37,0 5.18614,5.31057 0 0 1 10.37,0 z"
   class="st2"
   id="path46"
   inkscape:connector-curvature="0"
   style="fill:#1490df;stroke:none;stroke-width:12.23999977;stroke-linecap:butt" />
				</g>
				<g
   id="shape17684-7"
   transform="translate(14.3953,-11.7358)">
					<title
   id="title49">Sheet.17684</title>
					<path
   d="M 12.65,85.63 H 7 A 7.07202,7.24168 -180 0 0 5.9,100.02 7.55527,7.73653 0 0 1 5.97,97.33 4.46716,4.57433 0 0 1 7,88.29 h 5.65 a 4.47894,4.5864 0 0 1 0,9.17 H 11.1 a 3.37099,3.45187 -180 0 0 -0.33,1.45 3.2767,3.35531 -180 0 0 0.22,1.2 h 1.66 a 7.07202,7.24168 -180 0 0 0,-14.48 z"
   class="st3"
   id="path51"
   inkscape:connector-curvature="0"
   style="fill:url(#grad0-10);stroke:none;stroke-width:12.23999977;stroke-linecap:butt" />
				</g>
				<g
   id="shape17685-11"
   transform="translate(21.3923,-5.7011)">
					<title
   id="title54">Sheet.17685</title>
					<path
   d="m 13.83,85.73 a 8.25068,8.44863 0 0 1 0.08,1.11 7.37847,7.55549 0 0 1 -0.15,1.58 4.46716,4.57433 0 0 1 -1.03,9.04 H 7.07 a 4.47894,4.5864 0 1 1 0,-9.17 H 8.63 A 3.32385,3.40359 -180 0 0 8.96,86.84 3.2767,3.35531 -180 0 0 8.73,85.63 H 7.07 a 7.07202,7.24168 -180 0 0 0,14.48 h 5.66 a 7.07202,7.24168 -180 0 0 1.1,-14.38 z"
   class="st4"
   id="path56"
   inkscape:connector-curvature="0"
   style="fill:url(#grad0-14);stroke:none;stroke-width:12.23999977;stroke-linecap:butt" />
				</g>
				<g
   id="shape17686-15"
   transform="translate(0,-1.05515)">
					<title
   id="title59">Sheet.17686</title>
					<path
   d="m 17.57,98.51 -1.29,1.34 a 0.884002,0.90521 0 0 1 -1.24939,0 L 0.52,85.03 a 1.77979,1.82249 0 0 1 0,-2.57 l 1.31,-1.33 15.74,16.1 a 0.872215,0.893141 0 0 1 0,1.27936 z"
   class="st5"
   id="path61"
   inkscape:connector-curvature="0"
   style="fill:#50e6ff;stroke:none;stroke-width:12.23999977;stroke-linecap:butt" />
				</g>
				<g
   id="shape17687-17"
   transform="translate(0,-14.6446)">
					<title
   id="title64">Sheet.17687</title>
					<path
   d="m 16.01,81.44 1.45,1.49 a 0.884002,0.90521 0 0 1 0,1.27936 L 1.97,100.11 0.52,98.64 a 1.77979,1.82249 0 0 1 0,-2.57 L 14.76,81.44 a 0.884002,0.90521 0 0 1 1.24939,0 z"
   class="st2"
   id="path66"
   inkscape:connector-curvature="0"
   style="fill:#1490df;stroke:none;stroke-width:12.23999977;stroke-linecap:butt" />
				</g>
				<g
   id="shape17688-19"
   transform="translate(38.8442)">
					<title
   id="title69">Sheet.17688</title>
					<path
   d="m 0.26,98.5 a 0.872215,0.893141 0 0 1 0,-1.27936 L 16.02,81.14 l 1.31,1.34 a 1.77979,1.82249 0 0 1 0,2.57 L 2.81,99.84 a 0.872215,0.893141 0 0 1 -1.24939,0 z"
   class="st5"
   id="path71"
   inkscape:connector-curvature="0"
   style="fill:#50e6ff;stroke:none;stroke-width:12.23999977;stroke-linecap:butt" />
				</g>
				<g
   id="shape17689-21"
   transform="translate(38.9707,-13.5825)">
					<title
   id="title74">Sheet.17689</title>
					<path
   d="M 2.95,81.44 17.2,96.07 a 1.768,1.81042 0 0 1 0,2.56 l -1.45,1.48 -15.5,-15.9 a 0.907575,0.929349 0 0 1 0,-1.29143 L 1.7,81.44 a 0.884002,0.90521 0 0 1 1.24939,0 z"
   class="st2"
   id="path76"
   inkscape:connector-curvature="0"
   style="fill:#1490df;stroke:none;stroke-width:12.23999977;stroke-linecap:butt" />
				</g>
			</g>
		</g>
	</g>
</svg>

<?xml version="1.0" encoding="UTF-8" standalone="no"?>
<!DOCTYPE svg PUBLIC "-//W3C//DTD SVG 1.1//EN" "http://www.w3.org/Graphics/SVG/1.1/DTD/svg11.dtd">
<!-- Generated by Microsoft Visio, SVG Export Private Link.svg Page-1 -->
<svg xmlns="http://www.w3.org/2000/svg" xmlns:xlink="http://www.w3.org/1999/xlink" xmlns:ev="http://www.w3.org/2001/xml-events"
		width="1.1274in" height="1.39047in" viewBox="0 0 81.1729 100.114" xml:space="preserve" color-interpolation-filters="sRGB"
		class="st6">
	<style type="text/css">
	<![CDATA[
		.st1 {fill:#7a7a7a;stroke:none;stroke-linecap:butt;stroke-width:12.24}
		.st2 {fill:#1490df;stroke:none;stroke-linecap:butt;stroke-width:12.24}
		.st3 {fill:url(#grad0-10);stroke:none;stroke-linecap:butt;stroke-width:12.24}
		.st4 {fill:url(#grad0-14);stroke:none;stroke-linecap:butt;stroke-width:12.24}
		.st5 {fill:#50e6ff;stroke:none;stroke-linecap:butt;stroke-width:12.24}
		.st6 {fill:none;fill-rule:evenodd;font-size:12px;overflow:visible;stroke-linecap:square;stroke-miterlimit:3}
	]]>
	</style>

	<defs id="Patterns_And_Gradients">
		<linearGradient id="grad0-10" x1="0" y1="0" x2="1" y2="0" gradientTransform="rotate(90 0.5 0.5)">
			<stop offset="0.23" stop-color="#5ea0ef" stop-opacity="1"/>
			<stop offset="0.32" stop-color="#5b9fee" stop-opacity="1"/>
			<stop offset="0.48" stop-color="#509aeb" stop-opacity="1"/>
			<stop offset="0.57" stop-color="#3f92e6" stop-opacity="1"/>
			<stop offset="0.75" stop-color="#2688df" stop-opacity="1"/>
			<stop offset="0.93" stop-color="#127fd9" stop-opacity="1"/>
		</linearGradient>
		<linearGradient id="grad0-14" x1="0" y1="0" x2="1" y2="0" gradientTransform="rotate(90 0.5 0.5)">
			<stop offset="0.02" stop-color="#5ea0ef" stop-opacity="1"/>
			<stop offset="0.14" stop-color="#5b9fee" stop-opacity="1"/>
			<stop offset="0.23" stop-color="#5b9fee" stop-opacity="1"/>
			<stop offset="0.34" stop-color="#509aeb" stop-opacity="1"/>
			<stop offset="0.44" stop-color="#3f92e6" stop-opacity="1"/>
			<stop offset="0.63" stop-color="#2688df" stop-opacity="1"/>
			<stop offset="0.93" stop-color="#127fd9" stop-opacity="1"/>
		</linearGradient>
	</defs>
	<g>
		<title>Page-1</title>
		<g id="group17283-1" transform="translate(12.24,-34.0157)">
			<title>Private Link.17283</title>
			<g id="group17284-2">
				<title>Artboard 1</title>
				<g id="shape17285-3" transform="translate(25.9891,-25.0122)">
					<title>Sheet.17285</title>
					<rect x="0" y="77.3027" width="3.53601" height="22.8113" class="st1"/>
				</g>
				<g id="shape17286-5" transform="translate(22.571,-43.2371)">
					<title>Sheet.17286</title>
					<path d="M10.37 94.8 A5.18614 5.31057 0 1 1 0 94.8 A5.18614 5.31057 0 0 1 10.37 94.8 Z" class="st2"/>
				</g>
				<g id="shape17287-7" transform="translate(14.3953,-11.7358)">
					<title>Sheet.17287</title>
					<path d="M12.65 85.63 L7 85.63 A7.07202 7.24168 -180 0 0 5.9 100.02 A7.55527 7.73653 0 0 1 5.97 97.33 A4.46716
								 4.57433 0 0 1 7 88.29 L12.65 88.29 A4.47894 4.5864 0 0 1 12.65 97.46 L11.1 97.46 A3.37099 3.45187
								 -180 0 0 10.77 98.91 A3.2767 3.35531 -180 0 0 10.99 100.11 L12.65 100.11 A7.07202 7.24168 -180 0
								 0 12.65 85.63 Z" class="st3"/>
				</g>
				<g id="shape17288-11" transform="translate(21.3923,-5.7011)">
					<title>Sheet.17288</title>
					<path d="M13.83 85.73 A8.25068 8.44863 0 0 1 13.91 86.84 A7.37847 7.55549 0 0 1 13.76 88.42 A4.46716 4.57433
								 0 0 1 12.73 97.46 L7.07 97.46 A4.47894 4.5864 0 1 1 7.07 88.29 L8.63 88.29 A3.32385 3.40359 -180
								 0 0 8.96 86.84 A3.2767 3.35531 -180 0 0 8.73 85.63 L7.07 85.63 A7.07202 7.24168 -180 0 0 7.07 100.11
								 L12.73 100.11 A7.07202 7.24168 -180 0 0 13.83 85.73 Z" class="st4"/>
				</g>
				<g id="shape17289-15" transform="translate(0,-1.05515)">
					<title>Sheet.17289</title>
					<path d="M17.57 98.51 L16.28 99.85 a0.884002 0.90521 0 0 1 -1.24939 0 L0.52 85.03 A1.77979 1.82249 0 0 1 0.52
								 82.46 L1.83 81.13 L17.57 97.23 a0.872215 0.893141 0 0 1 -1.42109E-14 1.27936 Z" class="st5"/>
				</g>
				<g id="shape17290-17" transform="translate(0,-14.6446)">
					<title>Sheet.17290</title>
					<path d="M16.01 81.44 L17.46 82.93 a0.884002 0.90521 0 0 1 7.10543E-15 1.27936 L1.97 100.11 L0.52 98.64 A1.77979
								 1.82249 0 0 1 0.52 96.07 L14.76 81.44 a0.884002 0.90521 0 0 1 1.24939 -1.42109E-14 Z" class="st2"/>
				</g>
				<g id="shape17291-19" transform="translate(38.8442,0)">
					<title>Sheet.17291</title>
					<path d="M0.26 98.5 a0.872215 0.893141 0 0 1 -8.77076E-15 -1.27936 L16.02 81.14 L17.33 82.48 A1.77979 1.82249
								 0 0 1 17.33 85.05 L2.81 99.84 a0.872215 0.893141 0 0 1 -1.24939 0 L0.26 98.5 Z" class="st5"/>
				</g>
				<g id="shape17292-21" transform="translate(38.9707,-13.5825)">
					<title>Sheet.17292</title>
					<path d="M2.95 81.44 L17.2 96.07 A1.768 1.81042 0 0 1 17.2 98.63 L15.75 100.11 L0.25 84.21 a0.907575 0.929349
								 0 0 1 -6.66134E-15 -1.29143 L1.7 81.44 a0.884002 0.90521 0 0 1 1.24939 0 Z" class="st2"/>
				</g>
			</g>
		</g>
	</g>
</svg>
